azure-patterns/svg-key-right-arrows.svg

<svg xmlns="http://www.w3.org/2000/svg" viewBox="0 0 49 49">
                                
                            
    <path d="M45.862 23.657H17.8956C17.6346 21.8397 16.8009 20.0896 15.403 18.6846C13.6767 16.9598 11.4199 16.1016 9.16301 16.1016C6.90616 16.1016 4.64932 16.9598 2.923 18.6846C-0.52121 22.1257 -0.52121 27.704 2.923 31.1452C4.64932 32.87 6.90616 33.7282 9.16301 33.7282C11.4199 33.7282 13.6767 32.87 15.403 31.1452C16.8009 29.7485 17.6346 27.9901 17.8956 26.1727H35.7315V29.6139H43.3104V26.1727H45.862V23.657ZM13.6177 29.3615C12.4304 30.5478 10.8472 31.2041 9.16301 31.2041C7.4788 31.2041 5.90406 30.5478 4.70827 29.3615C2.25774 26.9131 2.25774 22.9166 4.70827 20.4683C5.89564 19.2819 7.4788 18.6257 9.16301 18.6257C10.8472 18.6257 12.422 19.2819 13.6177 20.4683C14.8051 21.6546 15.462 23.2363 15.462 24.9191C15.462 26.5934 14.8051 28.1752 13.6177 29.3615Z" fill="#0078D4"></path>
    <path d="M47.267 7.31445L40.9933 1.05469V5.26152H0.4375V9.71234H40.9933V13.5826L47.267 7.31445Z" fill="#50E6FF"></path>
    <path d="M47.267 42.6543L40.9933 36.3945V40.6014H0.4375V45.0522H40.9933V48.9225L47.267 42.6543Z" fill="#50E6FF"></path>
</svg>

<svg xmlns="http://www.w3.org/2000/svg" viewBox="0 0 49 49"><path d="M45.862 23.657H17.896a8.808 8.808 0 0 0-2.493-4.972 8.796 8.796 0 0 0-6.24-2.583 8.796 8.796 0 0 0-6.24 2.583 8.805 8.805 0 0 0 0 12.46 8.796 8.796 0 0 0 6.24 2.583 8.796 8.796 0 0 0 6.24-2.583 8.783 8.783 0 0 0 2.493-4.972H35.73v3.44h7.58v-3.44h2.551v-2.516zm-32.244 5.704a6.264 6.264 0 0 1-4.455 1.843 6.279 6.279 0 0 1-4.455-1.843c-2.45-2.448-2.45-6.444 0-8.893a6.264 6.264 0 0 1 4.455-1.842c1.684 0 3.259.656 4.455 1.842a6.253 6.253 0 0 1 1.844 4.451 6.248 6.248 0 0 1-1.844 4.442z" fill="#0078D4"/><path d="M47.267 7.314l-6.274-6.26v4.208H.437v4.45h40.556v3.87l6.274-6.268zM47.267 42.654l-6.274-6.26v4.207H.437v4.451h40.556v3.87l6.274-6.268z" fill="#50E6FF"/></svg>
